X: 4185
T: MISS WELSH
%R: reel
B: James Kerr "Merry Melodies" v.4 p.21 #185
Z: 2016 John Chambers <jc:trillian.mit.edu>
M: C|
L: 1/8
K: F
ud |\
cAAF f2(ed) | cAAd cAAf |\
cAAF f2(ed) | cAAF G3 ::\
c |\
fgag f2(ed) | cAAf cAAc |\
[1 fgag f2fd | cAAa g3 :|\
[2 fgag fefd | cAfA G3 |]

%%sep 1 1 500
%%sep 1 1 500

